build/svg/cmd/lc_combine.svg

<?xml version="1.0" encoding="UTF-8" standalone="no"?>
<svg
   xmlns:dc="http://purl.org/dc/elements/1.1/"
   xmlns:cc="http://creativecommons.org/ns#"
   xmlns:rdf="http://www.w3.org/1999/02/22-rdf-syntax-ns#"
   xmlns:svg="http://www.w3.org/2000/svg"
   xmlns="http://www.w3.org/2000/svg"
   xmlns:sodipodi="http://sodipodi.sourceforge.net/DTD/sodipodi-0.dtd"
   xmlns:inkscape="http://www.inkscape.org/namespaces/inkscape"
   viewBox="0 0 24 24"
   version="1.1"
   id="svg6"
   sodipodi:docname="lc_combine.svg"
   inkscape:export-filename="/home/jupiter007/Libreoffice yaru theme fullcolor/build/cmd/lc_combine.png"
   inkscape:export-xdpi="96"
   inkscape:export-ydpi="96"
   inkscape:version="0.92.5 (2060ec1f9f, 2020-04-08)">
  <metadata
     id="metadata12">
    <rdf:RDF>
      <cc:Work
         rdf:about="">
        <dc:format>image/svg+xml</dc:format>
        <dc:type
           rdf:resource="http://purl.org/dc/dcmitype/StillImage" />
      </cc:Work>
    </rdf:RDF>
  </metadata>
  <defs
     id="defs10" />
  <sodipodi:namedview
     pagecolor="#ffffff"
     bordercolor="#666666"
     borderopacity="1"
     objecttolerance="10"
     gridtolerance="10"
     guidetolerance="10"
     inkscape:pageopacity="0"
     inkscape:pageshadow="2"
     inkscape:window-width="1920"
     inkscape:window-height="1011"
     id="namedview8"
     showgrid="true"
     inkscape:zoom="27.812867"
     inkscape:cx="5.9972476"
     inkscape:cy="9.6338616"
     inkscape:window-x="0"
     inkscape:window-y="32"
     inkscape:window-maximized="1"
     inkscape:current-layer="svg6">
    <inkscape:grid
       type="xygrid"
       id="grid836" />
  </sodipodi:namedview>
  <path
     style="opacity:1;fill:#6d6d6d;fill-opacity:1;stroke:none;stroke-width:2;stroke-linejoin:round;stroke-miterlimit:4;stroke-dasharray:none;stroke-opacity:1"
     d="M 4 9 C 3.446 9 3 9.446 3 10 L 3 20 C 3 20.554 3.446 21 4 21 L 14 21 C 14.554 21 15 20.554 15 20 L 15 10 C 15 9.446 14.554 9 14 9 L 4 9 z M 4 10 L 14 10 L 14 20 L 4 20 L 4 10 z "
     id="rect823" />
  <path
     style="opacity:1;fill:#fee581;fill-opacity:1;stroke:none;stroke-width:2;stroke-linejoin:round;stroke-miterlimit:4;stroke-dasharray:none;stroke-opacity:1"
     d="M 4,10 V 20 H 14 V 17 C 10.134007,17 7,13.865993 7,10 Z"
     id="rect825"
     inkscape:connector-curvature="0"
     sodipodi:nodetypes="cccccc" />
  <path
     style="opacity:1;fill:#6d6d6d;fill-opacity:1;stroke:none;stroke-width:2.33333325;stroke-linejoin:round;stroke-miterlimit:4;stroke-dasharray:none;stroke-opacity:1"
     d="M 14 3 A 7 7 0 0 0 7 10 A 7 7 0 0 0 14 17 A 7 7 0 0 0 21 10 A 7 7 0 0 0 14 3 z M 14 4 A 6 6 0 0 1 20 10 A 6 6 0 0 1 14 16 A 6 6 0 0 1 8 10 A 6 6 0 0 1 14 4 z "
     id="circle841" />
  <path
     style="opacity:1;fill:#fee581;fill-opacity:1;stroke:none;stroke-width:2;stroke-linejoin:round;stroke-miterlimit:4;stroke-dasharray:none;stroke-opacity:1"
     d="M 14,4 C 11.07442,4.0028886 8.5774392,6.1153378 8.0898438,9 H 14 c 0.554,0 1,0.446 1,1 v 5.914062 C 17.886117,15.426219 19.999016,12.927056 20,10 20,6.6862915 17.313708,4 14,4 Z"
     id="path839"
     inkscape:connector-curvature="0"
     sodipodi:nodetypes="ccssccc" />
</svg>

<svg xmlns="http://www.w3.org/2000/svg" viewBox="0 0 24 24"><path d="M4 9c-.554 0-1 .446-1 1v10c0 .554.446 1 1 1h10c.554 0 1-.446 1-1V10c0-.554-.446-1-1-1H4zm0 1h10v10H4V10z" fill="#6d6d6d"/><path d="M4 10v10h10v-3a7 7 0 01-7-7z" fill="#fee581"/><path d="M14 3a7 7 0 00-7 7 7 7 0 007 7 7 7 0 007-7 7 7 0 00-7-7zm0 1a6 6 0 016 6 6 6 0 01-6 6 6 6 0 01-6-6 6 6 0 016-6z" fill="#6d6d6d"/><path d="M14 4a6 6 0 00-5.91 5H14c.554 0 1 .446 1 1v5.914A6 6 0 0014 4z" fill="#fee581"/></svg>
